icon-themes/breeze_svg/cmd/32/trackchanges.svg

<svg viewBox="0 0 32 32" xmlns="http://www.w3.org/2000/svg"><path d="m16 4a12 12 0 0 0 -12 12 12 12 0 0 0 12 12 12 12 0 0 0 12-12 12 12 0 0 0 -12-12zm0 1a11 11 0 0 1 11 11 11 11 0 0 1 -11 11 11 11 0 0 1 -11-11 11 11 0 0 1 11-11z" fill="#4d4d4d"/><path d="m16 12a4 4 0 0 0 -4 4 4 4 0 0 0 4 4 4 4 0 0 0 4-4 4 4 0 0 0 -4-4z" fill="#da4453"/></svg>

<svg xmlns="http://www.w3.org/2000/svg" viewBox="0 0 32 32">
 <path 
     style="fill:#4d4d4d" 
     d="M 16 4 A 12 12 0 0 0 4 16 A 12 12 0 0 0 16 28 A 12 12 0 0 0 28 16 A 12 12 0 0 0 16 4 z M 16 5 A 11 11 0 0 1 27 16 A 11 11 0 0 1 16 27 A 11 11 0 0 1 5 16 A 11 11 0 0 1 16 5 z "
     />
 <path 
     style="fill:#da4453" 
     d="M 16 12 A 4 4 0 0 0 12 16 A 4 4 0 0 0 16 20 A 4 4 0 0 0 20 16 A 4 4 0 0 0 16 12 z "
     />
</svg>
